X: 42900
T: Will You Come Down To Limerick
R: slip jig
M: 9/8
K: Gmajor
|:d|cAG GDG G2d|cAG GDE =F2d|cAG GDG GAG|1 FAd f2d cAd:|2 FAd f2d cAF||
GBd gaf g3|def gbg afd|cde =fed =f2d|cde =fed cA^F|
GBd gaf g3|def gbg fga|bgb afa g2e|fed cAG Fdc|
|:BGB AFA G2D|B2 B GBd cAG|BDD ADD G2D|FGA fed cAd:|

